X: 4
T:Dile que no voy
M:2/4
L:1/4
Q:1/8=176
S:Trad
O:Spain
A:Casares de Arbs, KINGDOM OF LEON
R:Titos
K:Gm
|:d d/2e/2|d d/2e/2|1d c/2B/2-|A2:|
2d (3c/2B/2A/2-|G2||
c c/2d/2|c B/2A/2|
B/2B/2 A/2G/2|A/2B/2 A/2^F/2|
G F/2E/2-|D2|
|:G/2G/2 ^F/2G/2|A c/2B/2|
A G/2^F/2|G F/2E/2-|1D2:|
2D2-|D2-|Dz||
